src/ios-home.svg

<?xml version="1.0" encoding="utf-8"?>
<!-- Generated by IcoMoon.io -->
<!DOCTYPE svg PUBLIC "-//W3C//DTD SVG 1.1//EN" "http://www.w3.org/Graphics/SVG/1.1/DTD/svg11.dtd">
<svg version="1.1" xmlns="http://www.w3.org/2000/svg" xmlns:xlink="http://www.w3.org/1999/xlink" width="512" height="512" viewBox="0 0 512 512">
<path fill="#000000" d="M256 112l-160 128v208h112v-128h96v128h112v-208l-160-128z"></path>
<path fill="#000000" d="M256 64l-96 76.8v-44.8h-64v95.999l-32 25.499 11.51 11.384 180.49-144.392 180.49 144.393 11.51-11.385-192-153.498z"></path>
</svg>

<?xml version="1.0" encoding="utf-8"?>
<!-- Generator: Adobe Illustrator 16.2.1, SVG Export Plug-In . SVG Version: 6.00 Build 0)  -->
<!DOCTYPE svg PUBLIC "-//W3C//DTD SVG 1.1//EN" "http://www.w3.org/Graphics/SVG/1.1/DTD/svg11.dtd">
<svg version="1.1" id="Layer_1" xmlns="http://www.w3.org/2000/svg" xmlns:xlink="http://www.w3.org/1999/xlink" x="0px" y="0px"
	 width="512px" height="512px" viewBox="0 0 512 512" enable-background="new 0 0 512 512" xml:space="preserve">
<g>
	<path d="M256,112L96,240v208h112V320h96v128h112V240L256,112z"/>
	<path d="M256,64l-96,76.8V96H96v95.999l-32,25.499l11.51,11.384L256,84.49l180.49,144.393L448,217.498L256,64z"/>
</g>
</svg>
